X: 1
T:Kas-a-barh jou par Guigner Guhennec
C:Sonneurs: Guigner Guhennec
C:Perroches: Midi Breton
M:4/4
L:1/8
K:G
G2A2 d2d2|c2d2 cBA2|G2A2 d2d2|c2d2 A4:|\
|:G2AB c2c2|d2cB A4|A2Bc d3B|d2c2 B2A2|c2BA G4:|
